;FLAVOR:Marlin
;TIME:21689
;Filament used: 8.59925m
;Layer height: 0.1
;MINX:69.99
;MINY:111.2
;MINZ:0.2
;MAXX:231.85
;MAXY:187.059
;MAXZ:17
;TARGET_MACHINE.NAME:Alfawise U20
;Generated with Cura_SteamEngine 5.11.0
M140 S60
M105
M190 S60
M104 S200
M105
M109 S200
; -- START GCODE --
G21                     ;set units to millimetres
G90                     ;set to absolute positioning
M106 S0                 ;set fan speed to zero (turned off)
G28                     ;home all axis
G92 E0                  ;zero the extruded length
G1 Z1 F1000             ;move up slightly
G1 Y60.0 Z0 E9.0 F1000.0;intro line
G1 Y100.0 E21.5 F1000.0 ;continue line
G92 E0                  ;zero the extruded length again
; -- end of START GCODE --
M82 ;absolute extrusion mode
G92 E0
G92 E0
G1 F2700 E-5
;LAYER_COUNT:169
;LAYER:0
M107
G0 F3600 X75.179 Y113.648 Z0.2
;TYPE:SKIRT
G1 F2700 E0
G1 F1200 X72.995 Y115.063 E0.08655
G1 X71.57 Y116.667 E0.15792
G1 X70.527 Y118.477 E0.2274
G1 X69.995 Y120.795 E0.3065
G1 X69.99 Y179.446 E2.25724
G1 X70.522 Y181.663 E2.33307
G1 X71.509 Y183.48 E2.40184
G1 X72.942 Y185.08 E2.47328
G1 X75.066 Y186.466 E2.55764
G1 X77.427 Y187.059 E2.6386
G1 X147.419 Y187.059 E4.96655
G1 X149.721 Y186.552 E5.04495
G1 X151.904 Y185.137 E5.13147
G1 X152.494 Y184.475 E5.16097
G1 X154.841 Y185.781 E5.2503
G1 X155.878 Y186.187 E5.28734
G1 X158.666 Y186.815 E5.38239
G1 X159.499 Y186.88 E5.41018
G1 X218.887 Y186.897 E7.38543
G1 X220.272 Y186.802 E7.43161
G1 X222.574 Y186.322 E7.50982
G1 X224.153 Y185.737 E7.56583
G1 X225.525 Y185.02 E7.61731
G1 X226.989 Y183.991 E7.67683
G1 X228.971 Y182.029 E7.76959
G1 X229.474 Y181.361 E7.7974
G1 X230.731 Y179.109 E7.88318
G1 X231.137 Y178.072 E7.92022
G1 X231.765 Y175.284 E8.01527
G1 X231.83 Y174.451 E8.04306
G1 X231.85 Y124.25 E9.71276
G1 X231.745 Y122.733 E9.76333
G1 X231.273 Y120.476 E9.84003
G1 X230.687 Y118.897 E9.89604
G1 X229.97 Y117.525 E9.94753
G1 X228.941 Y116.061 E10.00705
G1 X226.979 Y114.079 E10.09981
G1 X226.311 Y113.576 E10.12762
G1 X224.253 Y112.413 E10.20624
G1 X222.787 Y111.842 E10.25857
G1 X220.443 Y111.318 E10.33846
G1 X218.81 Y111.2 E10.39291
G1 X159.549 Y111.219 E12.36394
G1 X158.759 Y111.277 E12.39029
G1 X156.207 Y111.813 E12.47702
G1 X154.747 Y112.363 E12.52891
G1 X153.375 Y113.08 E12.5804
G1 X151.861 Y114.151 E12.64208
G1 X151.302 Y114.692 E12.66795
G1 X149.834 Y113.734 E12.72626
G1 X147.473 Y113.141 E12.80722
G1 X77.481 Y113.141 E15.13517
G1 X75.179 Y113.648 E15.21357
G0 F3600 X75.336 Y114.023
G1 F1200 X77.526 Y113.541 E15.28815
G1 X147.424 Y113.541 E17.61297
G1 X149.671 Y114.105 E17.69002
G1 X151.353 Y115.203 E17.75683
G1 X152.093 Y114.477 E17.79131
G1 X153.56 Y113.435 E17.85116
G1 X154.932 Y112.718 E17.90264
G1 X156.347 Y112.188 E17.9529
G1 X158.788 Y111.676 E18.03585
G1 X159.578 Y111.618 E18.0622
G1 X218.81 Y111.6 E20.03227
G1 X220.414 Y111.717 E20.08576
G1 X222.642 Y112.215 E20.16169
G1 X224.108 Y112.786 E20.21402
G1 X226.07 Y113.896 E20.28899
G1 X226.738 Y114.399 E20.3168
G1 X228.614 Y116.292 E20.40545
G1 X229.615 Y117.71 E20.46318
G1 X230.332 Y119.082 E20.51466
G1 X230.881 Y120.558 E20.56704
G1 X231.353 Y122.815 E20.64373
G1 X231.45 Y124.25 E20.69157
G1 X231.431 Y174.42 E22.36023
G1 X231.366 Y175.253 E22.38802
G1 X230.764 Y177.927 E22.47919
G1 X230.381 Y178.915 E22.51443
G1 X229.154 Y181.12 E22.59836
G1 X228.651 Y181.788 E22.62617
G1 X226.758 Y183.664 E22.71481
G1 X225.34 Y184.665 E22.77254
G1 X223.968 Y185.382 E22.82403
G1 X222.492 Y185.93 E22.8764
G1 X220.19 Y186.41 E22.95461
G1 X218.887 Y186.497 E22.99804
G1 X159.53 Y186.481 E24.97227
G1 X158.697 Y186.416 E25.00006
G1 X156.023 Y185.814 E25.09122
G1 X155.035 Y185.431 E25.12646
G1 X152.83 Y184.204 E25.21039
G1 X152.453 Y183.92 E25.22609
G1 X151.642 Y184.83 E25.26663
G1 X149.564 Y186.177 E25.349
G1 X147.374 Y186.659 E25.42358
G1 X77.476 Y186.659 E27.7484
G1 X75.229 Y186.095 E27.82545
G1 X73.205 Y184.773 E27.90586
G1 X71.839 Y183.249 E27.97393
G1 X70.898 Y181.516 E28.03952
G1 X70.39 Y179.399 E28.11193
G1 X70.395 Y120.84 E30.05961
G1 X70.903 Y118.626 E30.13516
G1 X71.897 Y116.901 E30.20138
G1 X73.257 Y115.37 E30.26949
G1 X75.336 Y114.023 E30.35188
G0 F3600 X75.492 Y114.399
G1 F1200 X77.571 Y113.941 E30.42269
G1 X147.375 Y113.941 E32.74438
G1 X149.508 Y114.476 E32.81752
G1 X151.403 Y115.714 E32.8928
G1 X152.373 Y114.763 E32.93798
G1 X153.745 Y113.79 E32.99393
G1 X155.117 Y113.073 E33.04542
G1 X156.43 Y112.579 E33.09208
G1 X158.817 Y112.075 E33.17322
G1 X159.607 Y112.017 E33.19956
G1 X218.81 Y112 E35.16866
G1 X220.385 Y112.116 E35.22119
G1 X222.497 Y112.588 E35.29317
G1 X223.963 Y113.159 E35.3455
G1 X225.829 Y114.216 E35.41683
G1 X226.497 Y114.719 E35.44464
G1 X228.329 Y116.573 E35.53133
G1 X229.26 Y117.895 E35.58511
G1 X229.977 Y119.267 E35.6366
G1 X230.489 Y120.64 E35.68533
G1 X230.961 Y122.897 E35.76203
G1 X231.05 Y124.25 E35.80712
G1 X231.032 Y174.389 E37.47475
G1 X230.967 Y175.222 E37.50254
G1 X230.391 Y177.782 E37.58982
G1 X230.008 Y178.77 E37.62506
G1 X228.834 Y180.879 E37.70534
G1 X228.331 Y181.547 E37.73316
G1 X226.477 Y183.379 E37.81985
G1 X225.155 Y184.31 E37.87363
G1 X223.783 Y185.027 E37.92511
G1 X222.41 Y185.538 E37.97384
G1 X220.108 Y186.018 E38.05205
G1 X218.887 Y186.097 E38.09275
G1 X159.561 Y186.082 E40.06594
G1 X158.728 Y186.017 E40.09373
G1 X156.168 Y185.441 E40.181
G1 X155.18 Y185.058 E40.21625
G1 X153.071 Y183.884 E40.29653
G1 X152.399 Y183.378 E40.32451
G1 X151.379 Y184.524 E40.37553
G1 X149.408 Y185.801 E40.45365
G1 X147.329 Y186.259 E40.52445
G1 X77.525 Y186.259 E42.84614
G1 X75.392 Y185.724 E42.91928
G1 X73.468 Y184.466 E42.99574
G1 X72.167 Y183.015 E43.06056
G1 X71.275 Y181.373 E43.12271
G1 X70.79 Y179.352 E43.19184
G1 X70.795 Y120.885 E45.13646
G1 X71.279 Y118.775 E45.20846
G1 X72.224 Y117.135 E45.27141
G1 X73.521 Y115.676 E45.33634
G1 X75.492 Y114.399 E45.41446
G0 F3600 X75.649 Y114.774
G1 F1200 X77.616 Y114.341 E45.48144
G1 X147.326 Y114.341 E47.80001
G1 X149.345 Y114.847 E47.86924
G1 X151.123 Y116.009 E47.93988
G1 X151.39 Y116.288 E47.95273
G1 X152.605 Y115.089 E48.0095
G1 X153.93 Y114.145 E48.06361
G1 X155.302 Y113.428 E48.1151
G1 X156.57 Y112.954 E48.16013
G1 X158.846 Y112.474 E48.23749
G1 X159.636 Y112.416 E48.26384
G1 X218.81 Y112.4 E50.23197
G1 X220.355 Y112.515 E50.2835
G1 X222.353 Y112.961 E50.35159
G1 X223.766 Y113.507 E50.40197
G1 X225.588 Y114.536 E50.47157
G1 X226.256 Y115.039 E50.49938
G1 X228.002 Y116.804 E50.58196
G1 X228.905 Y118.08 E50.63395
G1 X229.622 Y119.452 E50.68544
G1 X230.097 Y120.722 E50.73054
G1 X230.569 Y122.979 E50.80723
G1 X230.65 Y124.25 E50.84959
G1 X230.633 Y174.358 E52.51619
G1 X230.568 Y175.191 E52.54398
G1 X230.018 Y177.637 E52.62736
G1 X229.635 Y178.625 E52.66261
G1 X228.514 Y180.638 E52.73924
G1 X228.011 Y181.306 E52.76705
G1 X226.246 Y183.052 E52.84963
G1 X224.97 Y183.955 E52.90162
G1 X223.598 Y184.672 E52.95311
G1 X222.328 Y185.146 E52.99819
G1 X220.026 Y185.626 E53.07641
G1 X218.887 Y185.697 E53.11436
G1 X159.592 Y185.683 E55.08652
G1 X158.759 Y185.618 E55.11431
G1 X156.313 Y185.068 E55.1977
G1 X155.325 Y184.685 E55.23294
G1 X153.312 Y183.564 E55.30958
G1 X152.644 Y183.061 E55.33739
G1 X152.378 Y182.8 E55.34978
G1 X151.117 Y184.217 E55.41287
G1 X149.251 Y185.426 E55.48682
G1 X147.284 Y185.859 E55.55381
G1 X77.574 Y185.859 E57.87238
G1 X75.555 Y185.353 E57.94161
G1 X73.731 Y184.16 E58.0141
G1 X72.497 Y182.784 E58.07557
G1 X71.651 Y181.226 E58.13454
G1 X71.19 Y179.305 E58.20024
G1 X71.195 Y120.93 E60.1418
G1 X71.655 Y118.924 E60.21025
G1 X72.551 Y117.369 E60.26995
G1 X73.783 Y115.983 E60.33162
G1 X75.649 Y114.774 E60.40557
G0 F3600 X75.805 Y115.15
G1 F1200 X77.661 Y114.741 E60.46879
G1 X147.277 Y114.741 E62.78422
G1 X149.182 Y115.218 E62.84954
G1 X150.904 Y116.344 E62.91797
G1 X151.372 Y116.869 E62.94136
G1 X152.886 Y115.374 E63.01213
G1 X154.115 Y114.5 E63.06229
G1 X155.487 Y113.783 E63.11378
G1 X156.653 Y113.345 E63.15521
G1 X158.875 Y112.873 E63.23076
G1 X159.665 Y112.815 E63.25711
G1 X218.81 Y112.8 E65.22428
G1 X220.325 Y112.914 E65.27481
G1 X222.21 Y113.334 E65.33904
G1 X223.57 Y113.856 E65.38749
G1 X225.347 Y114.856 E65.45531
G1 X226.015 Y115.359 E65.48312
G1 X227.676 Y117.036 E65.56163
G1 X228.55 Y118.265 E65.61179
G1 X229.267 Y119.637 E65.66328
G1 X229.705 Y120.804 E65.70474
G1 X230.177 Y123.061 E65.78143
G1 X230.25 Y124.25 E65.82105
G1 X230.234 Y174.327 E67.48662
G1 X230.169 Y175.16 E67.51441
G1 X229.645 Y177.492 E67.5939
G1 X229.262 Y178.48 E67.62915
G1 X228.194 Y180.397 E67.70213
G1 X227.691 Y181.065 E67.72995
G1 X226.014 Y182.726 E67.80845
G1 X224.785 Y183.6 E67.85861
G1 X223.413 Y184.317 E67.9101
G1 X222.246 Y184.755 E67.95156
G1 X220.001 Y185.227 E68.02786
G1 X218.887 Y185.297 E68.06498
G1 X159.623 Y185.284 E70.03611
G1 X158.79 Y185.219 E70.0639
G1 X156.458 Y184.695 E70.1434
G1 X155.47 Y184.312 E70.17864
G1 X153.553 Y183.244 E70.25163
G1 X152.885 Y182.741 E70.27944
G1 X152.285 Y182.142 E70.30764
G1 X151.994 Y182.629 E70.32651
G1 X150.853 Y183.911 E70.38359
G1 X149.095 Y185.05 E70.45326
G1 X147.239 Y185.459 E70.51647
G1 X77.623 Y185.459 E72.83191
G1 X75.718 Y184.982 E72.89723
G1 X73.994 Y183.854 E72.96575
G1 X72.825 Y182.55 E73.024
G1 X72.028 Y181.083 E73.07953
G1 X71.59 Y179.258 E73.14195
G1 X71.595 Y120.975 E75.08045
G1 X72.031 Y119.073 E75.14535
G1 X72.878 Y117.603 E75.20178
G1 X74.047 Y116.289 E75.26028
G1 X75.805 Y115.15 E75.32995
G0 F3600 X75.962 Y115.525
G1 F1200 X77.706 Y115.141 E75.38934
G1 X147.228 Y115.141 E77.70165
G1 X149.019 Y115.589 E77.76306
G1 X150.641 Y116.65 E77.82752
G1 X151.378 Y117.477 E77.86437
G1 X151.529 Y117.276 E77.87273
G1 X153.167 Y115.659 E77.94928
G1 X154.3 Y114.855 E77.99549
G1 X155.672 Y114.138 E78.04698
G1 X156.737 Y113.736 E78.08484
G1 X158.904 Y113.272 E78.15855
G1 X159.694 Y113.214 E78.1849
G1 X218.81 Y113.2 E80.1511
G1 X220.295 Y113.313 E80.20064
G1 X222.122 Y113.724 E80.26292
G1 X223.374 Y114.205 E80.30753
G1 X225.106 Y115.176 E80.37357
G1 X225.774 Y115.679 E80.40138
G1 X227.391 Y117.317 E80.47794
G1 X228.195 Y118.45 E80.52415
G1 X228.912 Y119.822 E80.57563
G1 X229.314 Y120.887 E80.6135
G1 X229.778 Y123.086 E80.68825
G1 X229.85 Y124.25 E80.72703
G1 X229.835 Y174.296 E82.39157
G1 X229.77 Y175.129 E82.41936
G1 X229.272 Y177.347 E82.49497
G1 X228.889 Y178.335 E82.53021
G1 X227.874 Y180.156 E82.59955
G1 X227.371 Y180.824 E82.62736
G1 X225.733 Y182.441 E82.70392
G1 X224.6 Y183.245 E82.75013
G1 X223.228 Y183.962 E82.80161
G1 X222.163 Y184.364 E82.83948
G1 X219.976 Y184.828 E82.91383
G1 X218.887 Y184.897 E82.95013
G1 X159.654 Y184.885 E84.92023
G1 X158.821 Y184.82 E84.94802
G1 X156.603 Y184.322 E85.02362
G1 X155.615 Y183.939 E85.05887
G1 X153.794 Y182.924 E85.12821
G1 X153.126 Y182.421 E85.15602
G1 X152.199 Y181.488 E85.19976
G1 X151.695 Y182.363 E85.23335
G1 X150.591 Y183.604 E85.28859
G1 X148.938 Y184.675 E85.3541
G1 X147.194 Y185.059 E85.4135
G1 X77.672 Y185.059 E87.72581
G1 X75.881 Y184.611 E87.78721
G1 X74.257 Y183.548 E87.85177
G1 X73.155 Y182.319 E87.90667
G1 X72.404 Y180.936 E87.95902
G1 X71.99 Y179.211 E88.01802
G1 X71.995 Y121.02 E89.95346
G1 X72.407 Y119.222 E90.01481
G1 X73.205 Y117.837 E90.06798
G1 X74.309 Y116.596 E90.12322
G1 X75.962 Y115.525 E90.18873
G0 F3600 X76.118 Y115.901
G1 F1200 X77.751 Y115.541 E90.24435
G1 X147.179 Y115.541 E92.55353
G1 X148.856 Y115.96 E92.61103
G1 X150.38 Y116.958 E92.67162
G1 X151.405 Y118.107 E92.72283
G1 X151.849 Y117.517 E92.74739
G1 X153.399 Y115.985 E92.81987
G1 X154.485 Y115.21 E92.86425
G1 X155.857 Y114.493 E92.91574
G1 X156.877 Y114.111 E92.95196
G1 X158.933 Y113.671 E93.02189
G1 X159.723 Y113.613 E93.04824
G1 X218.81 Y113.6 E95.01348
G1 X220.207 Y113.703 E95.06007
G1 X222.034 Y114.114 E95.12236
G1 X223.179 Y114.554 E95.16315
G1 X224.865 Y115.496 E95.22739
G1 X225.533 Y115.999 E95.2552
G1 X227.065 Y117.549 E95.32769
G1 X227.84 Y118.635 E95.37206
G1 X228.557 Y120.007 E95.42355
G1 X228.939 Y121.027 E95.45978
G1 X229.379 Y123.111 E95.53062
G1 X229.45 Y124.25 E95.56858
G1 X229.436 Y174.265 E97.23208
G1 X229.371 Y175.098 E97.25987
G1 X228.899 Y177.202 E97.33159
G1 X228.516 Y178.19 E97.36683
G1 X227.554 Y179.915 E97.43253
G1 X227.051 Y180.583 E97.46034
G1 X225.501 Y182.115 E97.53282
G1 X224.415 Y182.89 E97.5772
G1 X223.043 Y183.607 E97.62869
G1 X222.023 Y183.989 E97.66491
G1 X219.95 Y184.429 E97.7354
G1 X218.887 Y184.497 E97.77083
G1 X159.685 Y184.486 E99.73989
G1 X158.852 Y184.421 E99.76768
G1 X156.748 Y183.949 E99.8394
G1 X155.76 Y183.566 E99.87464
G1 X154.035 Y182.604 E99.94034
G1 X153.367 Y182.101 E99.96815
G1 X152.114 Y180.834 E100.02742
G1 X151.368 Y182.129 E100.07712
G1 X150.327 Y183.298 E100.12919
G1 X148.782 Y184.299 E100.19042
G1 X147.149 Y184.659 E100.24603
G1 X77.721 Y184.659 E102.55522
G1 X76.044 Y184.24 E102.61271
G1 X74.52 Y183.242 E102.6733
G1 X73.483 Y182.085 E102.72498
G1 X72.781 Y180.793 E102.77388
G1 X72.39 Y179.164 E102.8296
G1 X72.395 Y121.065 E104.76198
G1 X72.783 Y119.371 E104.81979
G1 X73.532 Y118.071 E104.86969
G1 X74.573 Y116.902 E104.92175
G1 X76.118 Y115.901 E104.98298
G0 F3600 X76.275 Y116.276
G1 F1200 X77.796 Y115.941 E105.03478
G1 X147.13 Y115.941 E107.34084
G1 X148.693 Y116.331 E107.39442
G1 X150.117 Y117.264 E107.45104
G1 X151.087 Y118.346 E107.49937
G1 X151.391 Y118.906 E107.52057
G1 X151.666 Y118.426 E107.53896
G1 X152.169 Y117.758 E107.56678
G1 X153.68 Y116.27 E107.63731
G1 X154.671 Y115.564 E107.67778
G1 X155.997 Y114.868 E107.72759
G1 X157.017 Y114.486 E107.76382
G1 X158.962 Y114.07 E107.82997
G1 X159.752 Y114.012 E107.85632
G1 X218.81 Y114 E109.82059
G1 X220.177 Y114.102 E109.86619
G1 X221.892 Y114.488 E109.92465
G1 X222.985 Y114.904 E109.96355
G1 X224.624 Y115.816 E110.02594
G1 X225.292 Y116.319 E110.05375
G1 X226.78 Y117.83 E110.12428
G1 X227.486 Y118.821 E110.16475
G1 X228.182 Y120.147 E110.21456
G1 X228.564 Y121.167 E110.25079
G1 X228.98 Y123.136 E110.31772
G1 X229.05 Y124.25 E110.35485
G1 X229.037 Y174.234 E112.01732
G1 X228.972 Y175.067 E112.04511
G1 X228.526 Y177.057 E112.11294
G1 X228.143 Y178.045 E112.14819
G1 X227.234 Y179.674 E112.21023
G1 X226.731 Y180.342 E112.23804
G1 X225.22 Y181.83 E112.30858
G1 X224.229 Y182.536 E112.34905
G1 X222.903 Y183.232 E112.39886
G1 X221.883 Y183.614 E112.43508
G1 X219.924 Y184.03 E112.50169
G1 X218.887 Y184.097 E112.53625
G1 X159.716 Y184.087 E114.50429
G1 X158.883 Y184.022 E114.53208
G1 X156.893 Y183.576 E114.59991
G1 X155.905 Y183.193 E114.63515
G1 X154.276 Y182.284 E114.6972
G1 X153.608 Y181.781 E114.72501
G1 X152.12 Y180.27 E114.79554
G1 X151.903 Y179.973 E114.80778
G1 X151.741 Y180.68 E114.8319
G1 X151.041 Y181.895 E114.87854
G1 X150.065 Y182.991 E114.92735
G1 X148.625 Y183.924 E114.98442
G1 X147.104 Y184.259 E115.03622
G1 X77.77 Y184.259 E117.34228
G1 X76.207 Y183.869 E117.39586
G1 X74.783 Y182.936 E117.45248
G1 X73.813 Y181.854 E117.50082
G1 X73.157 Y180.646 E117.54654
G1 X72.79 Y179.117 E117.59884
G1 X72.795 Y121.11 E119.52816
G1 X73.159 Y119.52 E119.58241
G1 X73.859 Y118.305 E119.62905
G1 X74.835 Y117.209 E119.67786
G1 X76.275 Y116.276 E119.73493
G0 F3600 X76.432 Y116.651
G1 F1200 X77.841 Y116.341 E119.78291
G1 X147.081 Y116.341 E122.08584
G1 X148.53 Y116.702 E122.13551
G1 X149.854 Y117.57 E122.18817
G1 X150.759 Y118.58 E122.23327
G1 X151.385 Y119.731 E122.27685
G1 X151.986 Y118.667 E122.31749
G1 X152.489 Y117.999 E122.34531
G1 X153.96 Y116.556 E122.41384
G1 X154.902 Y115.891 E122.45219
G1 X156.137 Y115.243 E122.49858
G1 X157.157 Y114.861 E122.53481
G1 X158.991 Y114.469 E122.59718
G1 X159.781 Y114.411 E122.62353
G1 X218.81 Y114.4 E124.58684
G1 X220.147 Y114.501 E124.63144
G1 X221.75 Y114.862 E124.68609
G1 X222.843 Y115.278 E124.72499
G1 X224.383 Y116.136 E124.78362
G1 X225.051 Y116.639 E124.81143
G1 X226.494 Y118.11 E124.87997
G1 X227.159 Y119.052 E124.91832
G1 X227.807 Y120.287 E124.96471
G1 X228.189 Y121.307 E125.00093
G1 X228.581 Y123.161 E125.06396
G1 X228.65 Y124.25 E125.10025
G1 X228.638 Y174.203 E126.7617
G1 X228.573 Y175.036 E126.78949
G1 X228.153 Y176.912 E126.85343
G1 X227.77 Y177.9 E126.88867
G1 X226.914 Y179.433 E126.94707
G1 X226.411 Y180.101 E126.97488
G1 X224.94 Y181.544 E127.04342
G1 X223.998 Y182.209 E127.08177
