;FLAVOR:Marlin
;TIME:8829
;Filament used: 5.43182m
;Layer height: 0.15
;MINX:91.429
;MINY:106.7
;MINZ:0.2
;MAXX:192.898
;MAXY:193.3
;MAXZ:9.95
;TARGET_MACHINE.NAME:Alfawise U20
;Generated with Cura_SteamEngine 5.11.0
M140 S60
M105
M190 S60
M104 S200
M105
M109 S200
; -- START GCODE --
G21                     ;set units to millimetres
G90                     ;set to absolute positioning
M106 S0                 ;set fan speed to zero (turned off)
G28                     ;home all axis
G92 E0                  ;zero the extruded length
G1 Z1 F1000             ;move up slightly
G1 Y60.0 Z0 E9.0 F1000.0;intro line
G1 Y100.0 E21.5 F1000.0 ;continue line
G92 E0                  ;zero the extruded length again
; -- end of START GCODE --
M82 ;absolute extrusion mode
G92 E0
G92 E0
G1 F2700 E-5
;LAYER_COUNT:66
;LAYER:0
M107
G0 F3600 X94.464 Y108.954 Z0.2
;TYPE:SKIRT
G1 F2700 E0
G1 F1200 X97.282 Y107.247 E0.10958
G1 X99.874 Y106.7 E0.19769
G1 X134.634 Y106.705 E1.35381
G1 X136.815 Y107.169 E1.42798
G1 X138.924 Y108.228 E1.50647
G1 X140.669 Y109.73 E1.58305
G1 X142.157 Y111.89 E1.67029
G1 X143.165 Y110.167 E1.73668
G1 X144.761 Y108.576 E1.81163
G1 X146.932 Y107.284 E1.89566
G1 X149.384 Y106.7 E1.9795
G1 X184.825 Y106.7 E3.15827
G1 X187.22 Y107.276 E3.2402
G1 X189.734 Y108.707 E3.33641
G1 X191.561 Y110.941 E3.4324
G1 X192.052 Y111.77 E3.46444
G1 X192.898 Y114.393 E3.55611
G1 X192.894 Y185.1 E5.90783
G1 X192.42 Y187.326 E5.98353
G1 X191.099 Y189.865 E6.07872
G1 X189.145 Y191.631 E6.16633
G1 X187.053 Y192.778 E6.24568
G1 X184.723 Y193.3 E6.32509
G1 X149.374 Y193.3 E7.50081
G1 X146.97 Y192.722 E7.58304
G1 X144.763 Y191.43 E7.6681
G1 X143.167 Y189.829 E7.74329
G1 X142.162 Y188.141 E7.80863
G1 X142.093 Y188.288 E7.81403
G1 X140.518 Y190.415 E7.90206
G1 X139.034 Y191.674 E7.96679
G1 X137.058 Y192.738 E8.04143
G1 X134.771 Y193.3 E8.11976
G1 X99.758 Y193.295 E9.2843
G1 X97.153 Y192.686 E9.37328
G1 X94.461 Y191.044 E9.47815
G1 X92.439 Y188.463 E9.5872
G1 X91.619 Y186.054 E9.67184
G1 X91.429 Y184.022 E9.73972
G1 X91.533 Y114.655 E12.04688
G1 X91.741 Y113.491 E12.08621
G1 X92.619 Y111.302 E12.16465
G1 X94.464 Y108.954 E12.26397
G0 F3600 X94.735 Y109.257
G1 F1200 X97.431 Y107.624 E12.36881
G1 X99.914 Y107.1 E12.45321
G1 X134.593 Y107.105 E13.60664
G1 X136.681 Y107.549 E13.67764
G1 X138.7 Y108.563 E13.75279
G1 X140.368 Y109.998 E13.82597
G1 X141.816 Y112.092 E13.91065
G1 X142.119 Y113.112 E13.94604
G1 X142.276 Y112.479 E13.96773
G1 X143.484 Y110.413 E14.04733
G1 X145.005 Y108.897 E14.11875
G1 X147.086 Y107.659 E14.19929
G1 X149.431 Y107.1 E14.27947
G1 X184.778 Y107.1 E15.45512
G1 X187.07 Y107.651 E15.53352
G1 X189.472 Y109.018 E15.62544
G1 X191.251 Y111.194 E15.71893
G1 X191.684 Y111.933 E15.74741
G1 X192.498 Y114.457 E15.83562
G1 X192.494 Y185.059 E18.18385
G1 X192.041 Y187.187 E18.25622
G1 X190.777 Y189.617 E18.34732
G1 X188.912 Y191.303 E18.43094
G1 X186.909 Y192.401 E18.50691
G1 X184.681 Y192.9 E18.58285
G1 X149.421 Y192.9 E19.7556
G1 X147.12 Y192.347 E19.83431
G1 X145.009 Y191.111 E19.91568
G1 X143.488 Y189.585 E19.98734
G1 X142.257 Y187.518 E20.06735
G1 X142.113 Y186.912 E20.08807
G1 X141.772 Y188.05 E20.12758
G1 X140.226 Y190.138 E20.214
G1 X138.807 Y191.342 E20.27589
G1 X136.912 Y192.362 E20.34747
G1 X134.724 Y192.9 E20.42241
G1 X99.802 Y192.895 E21.58392
G1 X97.309 Y192.312 E21.66908
G1 X94.731 Y190.74 E21.7695
G1 X92.796 Y188.27 E21.87386
G1 X92.012 Y185.967 E21.95478
G1 X91.829 Y184.023 E22.01972
G1 X91.927 Y114.725 E24.32459
G1 X92.128 Y113.6 E24.3626
G1 X92.968 Y111.506 E24.43764
G1 X94.735 Y109.257 E24.53276
G0 F3600 X95.006 Y109.56
G1 F1200 X97.58 Y108.001 E24.63286
G1 X99.954 Y107.5 E24.71355
G1 X134.552 Y107.505 E25.86429
G1 X136.549 Y107.93 E25.9322
G1 X138.475 Y108.897 E26.00388
G1 X140.069 Y110.268 E26.0738
G1 X141.451 Y112.267 E26.15463
G1 X142.155 Y114.633 E26.23674
G1 X142.65 Y112.631 E26.30533
G1 X143.803 Y110.659 E26.38131
G1 X145.251 Y109.216 E26.4493
G1 X147.238 Y108.034 E26.5262
G1 X149.478 Y107.5 E26.60279
G1 X184.731 Y107.5 E27.77531
G1 X186.92 Y108.026 E27.85018
G1 X189.21 Y109.329 E27.93782
G1 X190.941 Y111.447 E28.0288
G1 X191.315 Y112.094 E28.05365
G1 X192.098 Y114.521 E28.13847
G1 X192.094 Y185.018 E30.48321
G1 X191.661 Y187.05 E30.55231
G1 X190.456 Y189.368 E30.6392
G1 X188.679 Y190.975 E30.71889
G1 X186.765 Y192.024 E30.79149
G1 X184.639 Y192.5 E30.86395
G1 X149.468 Y192.5 E32.03374
G1 X147.27 Y191.972 E32.10892
G1 X145.255 Y190.792 E32.18659
G1 X143.809 Y189.341 E32.25472
G1 X142.632 Y187.364 E32.33125
G1 X142.158 Y185.372 E32.39935
G1 X141.409 Y187.869 E32.48606
G1 X139.934 Y189.861 E32.5685
G1 X138.58 Y191.01 E32.62756
G1 X136.765 Y191.987 E32.69612
G1 X134.678 Y192.5 E32.7676
G1 X99.846 Y192.495 E33.92612
G1 X97.465 Y191.938 E34.00745
G1 X95.001 Y190.436 E34.10343
G1 X93.153 Y188.077 E34.2031
G1 X92.405 Y185.88 E34.28029
G1 X92.229 Y184.024 E34.3423
G1 X92.321 Y114.795 E36.64486
G1 X92.515 Y113.709 E36.68156
G1 X93.317 Y111.71 E36.7532
G1 X95.006 Y109.56 E36.84413
G0 F3600 X95.275 Y109.865
G1 F1200 X97.729 Y108.378 E36.93957
G1 X99.994 Y107.9 E37.01656
G1 X134.511 Y107.905 E38.1646
G1 X136.415 Y108.31 E38.22934
G1 X138.251 Y109.232 E38.29768
G1 X139.77 Y110.538 E38.36431
G1 X141.086 Y112.442 E38.44129
G1 X141.828 Y114.935 E38.5278
G1 X141.828 Y185.08 E40.86083
G1 X141.046 Y187.688 E40.95139
G1 X139.642 Y189.584 E41.02986
G1 X138.353 Y190.678 E41.08609
G1 X136.618 Y191.612 E41.15163
G1 X134.632 Y192.1 E41.21965
G1 X99.894 Y192.095 E42.37504
G1 X97.618 Y191.563 E42.45278
G1 X95.271 Y190.132 E42.5442
G1 X93.51 Y187.884 E42.63918
G1 X92.798 Y185.793 E42.71265
G1 X92.629 Y184.024 E42.77176
G1 X92.715 Y114.865 E45.072
G1 X92.902 Y113.818 E45.10737
G1 X93.667 Y111.911 E45.17571
G1 X95.275 Y109.865 E45.26226
G0 F3600 X95.546 Y110.168
G1 F1200 X97.878 Y108.755 E45.35295
G1 X100.034 Y108.3 E45.42624
G1 X134.47 Y108.305 E46.57159
G1 X136.283 Y108.691 E46.63324
G1 X138.026 Y109.566 E46.69811
G1 X139.469 Y110.807 E46.76141
G1 X140.722 Y112.619 E46.83468
G1 X141.428 Y114.992 E46.91703
G1 X141.428 Y185.022 E49.24623
G1 X140.683 Y187.507 E49.33252
G1 X139.35 Y189.307 E49.40702
G1 X138.126 Y190.346 E49.46042
G1 X136.472 Y191.236 E49.52289
G1 X134.585 Y191.7 E49.58752
G1 X99.938 Y191.695 E50.73988
G1 X97.774 Y191.189 E50.8138
G1 X95.541 Y189.828 E50.90078
G1 X93.867 Y187.691 E50.99107
G1 X93.191 Y185.706 E51.06081
G1 X93.029 Y184.024 E51.11701
G1 X93.109 Y114.935 E53.41492
G1 X93.289 Y113.927 E53.44898
G1 X94.016 Y112.115 E53.51392
G1 X95.546 Y110.168 E53.59628
G0 F3600 X95.817 Y110.471
G1 F1200 X98.027 Y109.132 E53.68222
G1 X100.074 Y108.7 E53.7518
G1 X134.429 Y108.705 E54.89446
G1 X136.147 Y109.071 E54.95288
G1 X137.804 Y109.902 E55.01453
G1 X139.17 Y111.077 E55.07446
G1 X140.357 Y112.794 E55.14389
G1 X141.028 Y115.049 E55.22214
G1 X141.028 Y184.964 E57.54752
G1 X140.32 Y187.326 E57.62954
G1 X139.058 Y189.03 E57.70006
G1 X137.899 Y190.014 E57.75063
G1 X136.325 Y190.861 E57.81008
G1 X134.539 Y191.3 E57.87125
G1 X99.982 Y191.295 E59.02062
G1 X97.93 Y190.815 E59.09071
G1 X95.811 Y189.524 E59.17324
G1 X94.224 Y187.498 E59.25884
G1 X93.584 Y185.619 E59.32486
G1 X93.429 Y184.024 E59.37816
G1 X93.503 Y115.005 E61.67374
G1 X93.676 Y114.036 E61.70648
G1 X94.365 Y112.319 E61.76802
G1 X95.817 Y110.471 E61.84618
G0 F3600 X96.088 Y110.774
G1 F1200 X98.176 Y109.509 E61.92738
G1 X100.114 Y109.1 E61.99326
G1 X134.388 Y109.105 E63.13322
G1 X136.012 Y109.451 E63.18844
G1 X137.582 Y110.238 E63.24686
G1 X138.871 Y111.347 E63.30341
G1 X139.992 Y112.969 E63.36899
G1 X140.628 Y115.106 E63.44315
G1 X140.628 Y184.906 E65.76471
G1 X139.957 Y187.143 E65.84238
G1 X138.763 Y188.756 E65.90913
G1 X137.672 Y189.682 E65.95673
G1 X136.178 Y190.486 E66.01316
G1 X134.493 Y190.9 E66.07087
G1 X100.026 Y190.895 E67.21724
G1 X98.086 Y190.441 E67.28351
G1 X96.081 Y189.22 E67.36159
G1 X94.581 Y187.305 E67.4425
G1 X93.977 Y185.532 E67.50479
G1 X93.829 Y184.024 E67.55519
G1 X93.897 Y115.075 E69.84845
G1 X94.063 Y114.145 E69.87987
G1 X94.714 Y112.523 E69.938
G1 X96.088 Y110.774 E70.01197
G0 F3600 X96.359 Y111.077
G1 F1200 X98.325 Y109.886 E70.08843
G1 X100.154 Y109.5 E70.1506
G1 X134.347 Y109.505 E71.28786
G1 X135.877 Y109.831 E71.33989
G1 X137.36 Y110.574 E71.39506
G1 X138.57 Y111.616 E71.44817
G1 X139.628 Y113.146 E71.51004
G1 X140.228 Y115.163 E71.58003
G1 X140.228 Y184.848 E73.89777
G1 X139.594 Y186.962 E73.97117
G1 X138.471 Y188.479 E74.03395
G1 X137.445 Y189.35 E74.07871
G1 X136.031 Y190.111 E74.13212
G1 X134.447 Y190.5 E74.18637
G1 X100.07 Y190.495 E75.32975
G1 X98.242 Y190.067 E75.3922
G1 X96.351 Y188.916 E75.46583
G1 X94.938 Y187.112 E75.54204
G1 X94.37 Y185.445 E75.60062
G1 X94.229 Y184.024 E75.64811
G1 X94.291 Y115.145 E77.93904
G1 X94.45 Y114.254 E77.96914
G1 X95.063 Y112.727 E78.02387
G1 X96.359 Y111.077 E78.09365
G0 F3600 X96.628 Y111.382
G1 F1200 X98.474 Y110.263 E78.16545
G1 X100.194 Y109.9 E78.22392
G1 X134.306 Y109.905 E79.35849
G1 X135.742 Y110.211 E79.40732
G1 X137.138 Y110.91 E79.45925
G1 X138.271 Y111.886 E79.50898
G1 X139.263 Y113.321 E79.56701
G1 X139.828 Y115.22 E79.6329
G1 X139.828 Y184.79 E81.94681
G1 X139.231 Y186.781 E82.01595
G1 X138.179 Y188.202 E82.07475
G1 X137.218 Y189.018 E82.11668
G1 X135.884 Y189.736 E82.16707
G1 X134.401 Y190.1 E82.21786
G1 X100.114 Y190.095 E83.35825
G1 X98.398 Y189.693 E83.41687
G1 X96.621 Y188.612 E83.48605
G1 X95.295 Y186.919 E83.55757
G1 X94.763 Y185.358 E83.61242
G1 X94.629 Y184.024 E83.65702
G1 X94.685 Y115.215 E85.94561
G1 X94.837 Y114.363 E85.9744
G1 X95.413 Y112.928 E86.02583
G1 X96.628 Y111.382 E86.09123
G0 F3600 X96.899 Y111.685
G1 F1200 X98.623 Y110.64 E86.15828
G1 X100.234 Y110.3 E86.21304
G1 X134.265 Y110.305 E87.34492
G1 X135.607 Y110.591 E87.39056
G1 X136.916 Y111.246 E87.43924
G1 X137.972 Y112.156 E87.4856
G1 X138.898 Y113.496 E87.53978
G1 X139.428 Y115.277 E87.60158
G1 X139.428 Y184.732 E89.91167
G1 X138.868 Y186.6 E89.97653
G1 X137.887 Y187.925 E90.03136
G1 X136.991 Y188.686 E90.07046
G1 X135.737 Y189.361 E90.11783
G1 X134.355 Y189.7 E90.16516
G1 X100.158 Y189.695 E91.30255
G1 X98.554 Y189.319 E91.35735
G1 X96.891 Y188.308 E91.42208
G1 X95.652 Y186.726 E91.48891
G1 X95.156 Y185.271 E91.54004
G1 X95.029 Y184.024 E91.58173
G1 X95.079 Y115.285 E93.868
G1 X95.224 Y114.472 E93.89547
G1 X95.762 Y113.132 E93.94349
G1 X96.899 Y111.685 E94.0047
G0 F3600 X97.17 Y111.988
G1 F1200 X98.772 Y111.017 E94.06701
G1 X100.274 Y110.7 E94.11806
G1 X134.224 Y110.705 E95.24725
G1 X135.472 Y110.971 E95.28969
G1 X136.694 Y111.582 E95.33513
G1 X137.671 Y112.425 E95.37805
G1 X138.534 Y113.673 E95.42851
G1 X139.028 Y115.334 E95.48615
G1 X139.028 Y184.674 E97.79241
G1 X138.505 Y186.419 E97.853
G1 X137.595 Y187.648 E97.90386
G1 X136.764 Y188.354 E97.94013
G1 X135.59 Y188.986 E97.98447
G1 X134.309 Y189.3 E98.02834
G1 X100.202 Y189.295 E99.16274
G1 X98.71 Y188.945 E99.21372
G1 X97.161 Y188.004 E99.274
G1 X96.009 Y186.533 E99.33614
G1 X95.549 Y185.184 E99.38355
G1 X95.429 Y184.024 E99.42233
G1 X95.473 Y115.355 E101.70627
G1 X95.611 Y114.581 E101.73242
G1 X96.111 Y113.336 E101.77705
G1 X97.17 Y111.988 E101.83406
G0 F3600 X97.441 Y112.291
G1 F1200 X98.921 Y111.394 E101.89162
G1 X100.314 Y111.1 E101.93897
G1 X134.183 Y111.105 E103.06546
G1 X135.337 Y111.351 E103.10471
G1 X136.472 Y111.918 E103.14691
G1 X137.372 Y112.695 E103.18645
G1 X138.169 Y113.848 E103.23307
G1 X138.628 Y115.391 E103.28661
G1 X138.628 Y184.616 E105.58905
G1 X138.142 Y186.238 E105.64536
G1 X137.303 Y187.371 E105.69226
G1 X136.537 Y188.022 E105.72569
G1 X135.447 Y188.609 E105.76687
G1 X134.259 Y188.9 E105.80755
G1 X100.246 Y188.895 E106.93882
G1 X98.866 Y188.571 E106.98597
G1 X97.431 Y187.7 E107.0418
G1 X96.366 Y186.34 E107.09926
G1 X95.942 Y185.097 E107.14294
G1 X95.829 Y184.024 E107.17882
G1 X95.867 Y115.425 E109.46044
G1 X95.998 Y114.69 E109.48527
G1 X96.46 Y113.54 E109.52649
G1 X97.441 Y112.291 E109.57931
G0 F3600 X97.71 Y112.596
G1 F1200 X99.07 Y111.771 E109.63222
G1 X100.354 Y111.5 E109.67586
G1 X134.142 Y111.505 E110.79966
G1 X135.202 Y111.731 E110.83571
G1 X136.25 Y112.254 E110.87466
G1 X137.073 Y112.965 E110.91084
G1 X137.804 Y114.023 E110.95361
G1 X138.228 Y115.448 E111.00306
G1 X138.228 Y184.558 E113.30166
G1 X137.779 Y186.057 E113.35371
G1 X137.011 Y187.094 E113.39663
G1 X136.308 Y187.692 E113.42733
G1 X135.302 Y188.233 E113.46532
G1 X134.213 Y188.5 E113.50261
G1 X100.291 Y188.495 E114.63086
G1 X99.019 Y188.196 E114.67432
G1 X97.702 Y187.397 E114.72556
G1 X96.723 Y186.147 E114.77836
G1 X96.335 Y185.01 E114.81832
G1 X96.229 Y184.024 E114.85131
G1 X96.261 Y115.495 E117.13059
G1 X96.385 Y114.799 E117.1541
G1 X96.81 Y113.741 E117.19203
G1 X97.71 Y112.596 E117.24046
G0 F3600 X97.981 Y112.899
G1 F1200 X99.219 Y112.148 E117.28862
G1 X100.394 Y111.9 E117.32857
G1 X134.101 Y111.905 E118.44967
G1 X135.067 Y112.111 E118.48252
G1 X136.025 Y112.589 E118.51813
G1 X136.775 Y113.237 E118.55109
G1 X137.439 Y114.198 E118.58994
G1 X137.828 Y115.505 E118.6353
G1 X137.828 Y184.5 E120.93008
G1 X137.416 Y185.876 E120.97786
G1 X136.719 Y186.817 E121.0168
G1 X136.081 Y187.36 E121.04467
G1 X135.159 Y187.856 E121.07949
G1 X134.163 Y188.1 E121.1136
G1 X100.335 Y188.095 E122.23872
G1 X99.173 Y187.822 E122.27842
G1 X97.973 Y187.094 E122.3251
G1 X97.08 Y185.954 E122.37327
G1 X96.728 Y184.923 E122.4095
G1 X96.629 Y184.024 E122.43958
G1 X96.655 Y115.565 E124.71654
G1 X96.772 Y114.908 E124.73874
G1 X97.159 Y113.945 E124.77326
G1 X97.981 Y112.899 E124.8175
G0 F3600 X98.252 Y113.202
G1 F1200 X99.368 Y112.525 E124.86092
G1 X100.434 Y112.3 E124.89715
G1 X134.06 Y112.305 E126.01556
G1 X134.932 Y112.491 E126.04521
G1 X135.8 Y112.924 E126.07748
G1 X136.477 Y113.509 E126.10724
G1 X137.074 Y114.373 E126.14217
G1 X137.428 Y115.562 E126.18343
G1 X137.428 Y184.442 E128.47439
G1 X137.053 Y185.693 E128.51782
G1 X136.424 Y186.543 E128.55299
G1 X135.854 Y187.028 E128.57789
G1 X135.016 Y187.479 E128.60954
G1 X134.113 Y187.7 E128.64046
G1 X100.379 Y187.695 E129.76245
G1 X99.327 Y187.448 E129.7984
G1 X98.244 Y186.791 E129.84053
G1 X97.437 Y185.761 E129.88405
G1 X97.12 Y184.832 E129.9167
G1 X97.029 Y184.024 E129.94374
G1 X97.049 Y115.635 E132.21837
G1 X97.159 Y115.017 E132.23924
G1 X97.508 Y114.149 E132.27036
G1 X98.252 Y113.202 E132.31042
G0 F3600 X98.52 Y113.508
G1 F1200 X99.519 Y112.901 E132.3493
G1 X100.473 Y112.7 E132.38172
G1 X134.019 Y112.705 E133.49747
G1 X134.797 Y112.871 E133.52393
G1 X135.575 Y113.259 E133.55284
G1 X136.179 Y113.781 E133.57939
G1 X136.709 Y114.548 E133.6104
G1 X137.028 Y115.619 E133.64757
G1 X137.028 Y184.384 E135.9347
G1 X136.69 Y185.512 E135.97387
G1 X136.129 Y186.269 E136.00521
G1 X135.628 Y186.696 E136.0271
G1 X134.875 Y187.101 E136.05554
G1 X134.063 Y187.3 E136.08335
G1 X100.424 Y187.295 E137.20218
G1 X99.48 Y187.073 E137.23444
G1 X98.515 Y186.488 E137.27197
G1 X97.794 Y185.568 E137.31085
G1 X97.512 Y184.741 E137.33991
G1 X97.429 Y184.024 E137.36392
G1 X97.443 Y115.705 E139.63621
G1 X97.546 Y115.126 E139.65577
G1 X97.858 Y114.35 E139.68359
G1 X98.52 Y113.508 E139.71922
G0 F3600 X98.79 Y113.812
G1 F1200 X99.67 Y113.278 E139.75345
G1 X100.513 Y113.1 E139.78211
G1 X133.977 Y113.105 E140.89513
G1 X134.664 Y113.252 E140.91849
G1 X135.351 Y113.594 E140.94402
G1 X135.88 Y114.051 E140.96727
G1 X136.344 Y114.723 E140.99443
G1 X136.628 Y115.676 E141.0275
G1 X136.628 Y184.326 E143.31081
G1 X136.327 Y185.331 E143.34571
G1 X135.836 Y185.993 E143.37312
G1 X135.401 Y186.364 E143.39213
G1 X134.732 Y186.724 E143.4174
G1 X134.013 Y186.9 E143.44202
G1 X100.469 Y186.895 E144.5577
G1 X99.633 Y186.698 E144.58627
G1 X98.786 Y186.185 E144.6192
G1 X98.151 Y185.375 E144.65344
G1 X97.904 Y184.65 E144.67891
G1 X97.829 Y184.024 E144.69988
G1 X97.837 Y115.775 E146.96985
G1 X97.933 Y115.235 E146.98809
G1 X98.207 Y114.554 E147.01251
G1 X98.79 Y113.812 E147.04389
G0 F3600 X99.058 Y114.118
G1 F1200 X99.821 Y113.654 E147.0736
G1 X100.552 Y113.5 E147.09844
G1 X133.936 Y113.505 E148.2088
G1 X134.531 Y113.632 E148.22903
G1 X135.125 Y113.928 E148.25111
G1 X135.582 Y114.323 E148.2712
G1 X135.979 Y114.898 E148.29444
G1 X136.228 Y115.733 E148.32342
G1 X136.228 Y184.268 E150.6029
