;FLAVOR:Marlin
;TIME:21608
;Filament used: 8.58173m
;Layer height: 0.1
;MINX:69.49
;MINY:111.2
;MINZ:0.2
;MAXX:232.35
;MAXY:187.059
;MAXZ:17
;TARGET_MACHINE.NAME:Alfawise U20
;Generated with Cura_SteamEngine 5.11.0
M140 S60
M105
M190 S60
M104 S200
M105
M109 S200
; -- START GCODE --
G21                     ;set units to millimetres
G90                     ;set to absolute positioning
M106 S0                 ;set fan speed to zero (turned off)
G28                     ;home all axis
G92 E0                  ;zero the extruded length
G1 Z1 F1000             ;move up slightly
G1 Y60.0 Z0 E9.0 F1000.0;intro line
G1 Y100.0 E21.5 F1000.0 ;continue line
G92 E0                  ;zero the extruded length again
; -- end of START GCODE --
M82 ;absolute extrusion mode
G92 E0
G92 E0
G1 F2700 E-5
;LAYER_COUNT:169
;LAYER:0
M107
G0 F3600 X74.679 Y113.648 Z0.2
;TYPE:SKIRT
G1 F2700 E0
G1 F1200 X76.981 Y113.141 E0.0784
G1 X146.973 Y113.141 E2.40634
G1 X149.335 Y113.734 E2.48734
G1 X151.405 Y115.093 E2.5697
G1 X152.413 Y114.108 E2.61658
G1 X153.875 Y113.08 E2.67602
G1 X155.247 Y112.363 E2.72751
G1 X156.707 Y111.813 E2.7794
G1 X159.259 Y111.277 E2.86613
G1 X160.049 Y111.219 E2.89248
G1 X219.31 Y111.2 E4.86351
G1 X220.943 Y111.318 E4.91796
G1 X223.287 Y111.842 E4.99785
G1 X224.753 Y112.413 E5.05018
G1 X226.811 Y113.576 E5.1288
G1 X227.479 Y114.079 E5.15661
G1 X229.441 Y116.061 E5.24937
G1 X230.47 Y117.525 E5.30889
G1 X231.187 Y118.897 E5.36038
G1 X231.773 Y120.476 E5.41639
G1 X232.245 Y122.733 E5.49309
G1 X232.35 Y124.25 E5.54366
G1 X232.33 Y174.451 E7.21335
G1 X232.265 Y175.284 E7.24114
G1 X231.637 Y178.072 E7.3362
G1 X231.231 Y179.109 E7.37324
G1 X229.974 Y181.361 E7.45902
G1 X229.471 Y182.029 E7.48683
G1 X227.489 Y183.991 E7.57959
G1 X226.025 Y185.02 E7.6391
G1 X224.653 Y185.737 E7.69059
G1 X223.074 Y186.322 E7.7466
G1 X220.772 Y186.802 E7.82481
G1 X219.387 Y186.897 E7.87098
G1 X159.999 Y186.88 E9.84624
G1 X159.166 Y186.815 E9.87403
G1 X156.378 Y186.187 E9.96908
G1 X155.341 Y185.781 E10.00612
G1 X153.089 Y184.524 E10.0919
G1 X152.408 Y184.009 E10.1203
G1 X151.405 Y185.137 E10.1705
G1 X149.221 Y186.552 E10.25705
G1 X146.919 Y187.059 E10.33545
G1 X76.927 Y187.059 E12.6634
G1 X74.566 Y186.466 E12.74436
G1 X72.442 Y185.08 E12.82872
G1 X71.009 Y183.48 E12.90016
G1 X70.022 Y181.663 E12.96893
G1 X69.49 Y179.446 E13.04476
G1 X69.495 Y120.795 E14.9955
G1 X70.027 Y118.477 E15.07461
G1 X71.07 Y116.667 E15.14409
G1 X72.495 Y115.063 E15.21545
G1 X74.679 Y113.648 E15.302
G0 F3600 X74.836 Y114.023
G1 F1200 X77.026 Y113.541 E15.37658
G1 X146.924 Y113.541 E17.7014
G1 X149.171 Y114.105 E17.77845
G1 X151.151 Y115.399 E17.85713
G1 X151.4 Y115.657 E17.86905
G1 X152.693 Y114.394 E17.92917
G1 X154.06 Y113.435 E17.98471
G1 X155.432 Y112.718 E18.0362
G1 X156.847 Y112.188 E18.08645
G1 X159.288 Y111.676 E18.16941
G1 X160.078 Y111.618 E18.19575
G1 X219.31 Y111.6 E20.16582
G1 X220.914 Y111.717 E20.21931
G1 X223.142 Y112.215 E20.29524
G1 X224.608 Y112.786 E20.34757
G1 X226.57 Y113.896 E20.42254
G1 X227.238 Y114.399 E20.45036
G1 X229.114 Y116.292 E20.539
G1 X230.115 Y117.71 E20.59673
G1 X230.832 Y119.082 E20.64822
G1 X231.381 Y120.558 E20.7006
G1 X231.853 Y122.815 E20.77729
G1 X231.95 Y124.25 E20.82513
G1 X231.931 Y174.42 E22.49379
G1 X231.866 Y175.253 E22.52158
G1 X231.264 Y177.927 E22.61274
G1 X230.881 Y178.915 E22.64798
G1 X229.654 Y181.12 E22.73191
G1 X229.151 Y181.788 E22.75972
G1 X227.258 Y183.664 E22.84837
G1 X225.84 Y184.665 E22.9061
G1 X224.468 Y185.382 E22.95759
G1 X222.992 Y185.93 E23.00995
G1 X220.69 Y186.41 E23.08816
G1 X219.387 Y186.497 E23.1316
G1 X160.03 Y186.481 E25.10582
G1 X159.197 Y186.416 E25.13361
G1 X156.523 Y185.814 E25.22477
G1 X155.535 Y185.431 E25.26002
G1 X153.33 Y184.204 E25.34395
G1 X152.662 Y183.701 E25.37176
G1 X152.386 Y183.432 E25.38458
G1 X151.143 Y184.83 E25.4468
G1 X149.064 Y186.177 E25.52919
G1 X146.874 Y186.659 E25.60377
G1 X76.976 Y186.659 E27.92859
G1 X74.729 Y186.095 E28.00564
G1 X72.705 Y184.773 E28.08605
G1 X71.339 Y183.249 E28.15412
G1 X70.398 Y181.516 E28.21971
G1 X69.89 Y179.399 E28.29212
G1 X69.895 Y120.84 E30.2398
G1 X70.403 Y118.626 E30.31535
G1 X71.397 Y116.901 E30.38157
G1 X72.757 Y115.37 E30.44968
G1 X74.836 Y114.023 E30.53207
G0 F3600 X74.992 Y114.399
G1 F1200 X77.071 Y113.941 E30.60288
G1 X146.875 Y113.941 E32.92457
G1 X149.008 Y114.476 E32.99771
G1 X150.932 Y115.734 E33.07416
G1 X151.381 Y116.235 E33.09654
G1 X152.923 Y114.721 E33.16842
G1 X154.245 Y113.79 E33.2222
G1 X155.617 Y113.073 E33.27368
G1 X156.93 Y112.579 E33.32034
G1 X159.317 Y112.075 E33.40149
G1 X160.107 Y112.017 E33.42783
G1 X219.31 Y112 E35.39693
G1 X220.885 Y112.116 E35.44946
G1 X222.997 Y112.588 E35.52144
G1 X224.463 Y113.159 E35.57376
G1 X226.329 Y114.216 E35.64509
G1 X226.997 Y114.719 E35.6729
G1 X228.829 Y116.573 E35.7596
G1 X229.76 Y117.895 E35.81337
G1 X230.477 Y119.267 E35.86486
G1 X230.989 Y120.64 E35.9136
G1 X231.461 Y122.897 E35.99029
G1 X231.55 Y124.25 E36.03539
G1 X231.532 Y174.389 E37.70302
G1 X231.467 Y175.222 E37.73081
G1 X230.891 Y177.782 E37.81809
G1 X230.508 Y178.77 E37.85333
G1 X229.334 Y180.879 E37.93361
G1 X228.831 Y181.547 E37.96142
G1 X226.977 Y183.379 E38.04811
G1 X225.655 Y184.31 E38.10189
G1 X224.283 Y185.027 E38.15338
G1 X222.91 Y185.538 E38.20211
G1 X220.608 Y186.018 E38.28032
G1 X219.387 Y186.097 E38.32102
G1 X160.061 Y186.082 E40.29421
G1 X159.228 Y186.017 E40.322
G1 X156.668 Y185.441 E40.40927
G1 X155.68 Y185.058 E40.44451
G1 X153.571 Y183.884 E40.5248
G1 X152.903 Y183.381 E40.55261
G1 X152.323 Y182.806 E40.57977
G1 X152.142 Y183.104 E40.59137
G1 X150.879 Y184.524 E40.65458
G1 X148.908 Y185.801 E40.73269
G1 X146.829 Y186.259 E40.80349
G1 X77.025 Y186.259 E43.12518
G1 X74.892 Y185.724 E43.19833
G1 X72.968 Y184.466 E43.27478
G1 X71.667 Y183.015 E43.3396
G1 X70.775 Y181.373 E43.40175
G1 X70.29 Y179.352 E43.47088
G1 X70.295 Y120.885 E45.4155
G1 X70.779 Y118.775 E45.4875
G1 X71.724 Y117.135 E45.55046
G1 X73.021 Y115.676 E45.61539
G1 X74.992 Y114.399 E45.6935
G0 F3600 X75.149 Y114.774
G1 F1200 X77.116 Y114.341 E45.76049
G1 X146.826 Y114.341 E48.07905
G1 X148.845 Y114.847 E48.14828
G1 X150.669 Y116.04 E48.22077
G1 X151.363 Y116.815 E48.25537
G1 X153.154 Y115.048 E48.33905
G1 X154.43 Y114.145 E48.39104
G1 X155.802 Y113.428 E48.44253
G1 X157.07 Y112.954 E48.48756
G1 X159.346 Y112.474 E48.56492
G1 X160.136 Y112.416 E48.59127
G1 X219.31 Y112.4 E50.5594
G1 X220.855 Y112.515 E50.61093
G1 X222.853 Y112.961 E50.67902
G1 X224.266 Y113.507 E50.72941
G1 X226.088 Y114.536 E50.799
G1 X226.756 Y115.039 E50.82681
G1 X228.502 Y116.804 E50.90939
G1 X229.405 Y118.08 E50.96138
G1 X230.122 Y119.452 E51.01287
G1 X230.597 Y120.722 E51.05797
G1 X231.069 Y122.979 E51.13466
G1 X231.15 Y124.25 E51.17702
G1 X231.133 Y174.358 E52.84362
G1 X231.068 Y175.191 E52.87141
G1 X230.518 Y177.637 E52.95479
G1 X230.135 Y178.625 E52.99004
G1 X229.014 Y180.638 E53.06667
G1 X228.511 Y181.306 E53.09448
G1 X226.746 Y183.052 E53.17706
G1 X225.47 Y183.955 E53.22905
G1 X224.098 Y184.672 E53.28054
G1 X222.828 Y185.146 E53.32563
G1 X220.526 Y185.626 E53.40384
G1 X219.387 Y185.697 E53.44179
G1 X160.092 Y185.683 E55.41395
G1 X159.259 Y185.618 E55.44174
G1 X156.813 Y185.068 E55.52513
G1 X155.825 Y184.685 E55.56037
G1 X153.812 Y183.564 E55.63701
G1 X153.144 Y183.061 E55.66482
G1 X152.238 Y182.154 E55.70746
G1 X151.843 Y182.838 E55.73373
G1 X150.617 Y184.217 E55.7951
G1 X148.751 Y185.426 E55.86905
G1 X146.784 Y185.859 E55.93604
G1 X77.074 Y185.859 E58.2546
G1 X75.055 Y185.353 E58.32383
G1 X73.231 Y184.16 E58.39632
G1 X71.997 Y182.784 E58.4578
G1 X71.151 Y181.226 E58.51676
G1 X70.69 Y179.305 E58.58247
G1 X70.695 Y120.93 E60.52403
G1 X71.155 Y118.924 E60.59248
G1 X72.051 Y117.369 E60.65217
G1 X73.283 Y115.983 E60.71385
G1 X75.149 Y114.774 E60.7878
G0 F3600 X75.305 Y115.15
G1 F1200 X73.547 Y116.289 E60.85747
G1 X72.378 Y117.603 E60.91597
G1 X71.531 Y119.073 E60.9724
G1 X71.095 Y120.975 E61.0373
G1 X71.09 Y179.258 E62.9758
G1 X71.528 Y181.083 E63.03822
G1 X72.325 Y182.55 E63.09375
G1 X73.494 Y183.854 E63.152
G1 X75.218 Y184.982 E63.22052
G1 X77.123 Y185.459 E63.28584
G1 X146.739 Y185.459 E65.60128
G1 X148.595 Y185.05 E65.66449
G1 X150.353 Y183.911 E65.73416
G1 X151.519 Y182.6 E65.79252
G1 X152.154 Y181.501 E65.83473
G1 X153.385 Y182.741 E65.89285
G1 X154.053 Y183.244 E65.92066
G1 X155.97 Y184.312 E65.99364
G1 X156.958 Y184.695 E66.02889
G1 X159.29 Y185.219 E66.10839
G1 X160.123 Y185.284 E66.13617
G1 X219.387 Y185.297 E68.1073
G1 X220.501 Y185.227 E68.14443
G1 X222.746 Y184.755 E68.22073
G1 X223.913 Y184.317 E68.26219
G1 X225.285 Y183.6 E68.31368
G1 X226.514 Y182.726 E68.36384
G1 X228.191 Y181.065 E68.44234
G1 X228.694 Y180.397 E68.47015
G1 X229.762 Y178.48 E68.54314
G1 X230.145 Y177.492 E68.57838
G1 X230.669 Y175.16 E68.65788
G1 X230.734 Y174.327 E68.68567
G1 X230.75 Y124.25 E70.35124
G1 X230.677 Y123.061 E70.39086
G1 X230.205 Y120.804 E70.46755
G1 X229.767 Y119.637 E70.50901
G1 X229.05 Y118.265 E70.5605
G1 X228.176 Y117.036 E70.61066
G1 X226.515 Y115.359 E70.68916
G1 X225.847 Y114.856 E70.71698
G1 X224.07 Y113.856 E70.78479
G1 X222.71 Y113.334 E70.83325
G1 X220.825 Y112.914 E70.89748
G1 X219.31 Y112.8 E70.94801
G1 X160.165 Y112.815 E72.91518
G1 X159.375 Y112.873 E72.94153
G1 X157.153 Y113.345 E73.01708
G1 X155.987 Y113.783 E73.05851
G1 X154.615 Y114.5 E73.11
G1 X153.386 Y115.374 E73.16015
G1 X151.709 Y117.035 E73.23866
G1 X151.396 Y117.451 E73.25598
G1 X150.406 Y116.346 E73.30532
G1 X148.682 Y115.218 E73.37384
G1 X146.777 Y114.741 E73.43916
G1 X77.161 Y114.741 E75.7546
G1 X75.305 Y115.15 E75.81781
G0 F3600 X75.462 Y115.525
G1 F1200 X77.206 Y115.141 E75.87721
G1 X146.728 Y115.141 E78.18952
G1 X148.519 Y115.589 E78.25092
G1 X150.143 Y116.652 E78.31548
G1 X151.215 Y117.848 E78.3689
G1 X151.398 Y118.163 E78.38101
G1 X151.526 Y117.944 E78.38945
G1 X152.029 Y117.276 E78.41726
G1 X153.667 Y115.659 E78.49382
G1 X154.8 Y114.855 E78.54002
G1 X156.172 Y114.138 E78.59151
G1 X157.237 Y113.736 E78.62937
G1 X159.404 Y113.272 E78.70308
G1 X160.194 Y113.214 E78.72943
G1 X219.31 Y113.2 E80.69564
G1 X220.795 Y113.313 E80.74517
G1 X222.622 Y113.724 E80.80745
G1 X223.874 Y114.205 E80.85206
G1 X225.606 Y115.176 E80.91811
G1 X226.274 Y115.679 E80.94592
G1 X227.891 Y117.317 E81.02247
G1 X228.695 Y118.45 E81.06868
G1 X229.412 Y119.822 E81.12017
G1 X229.814 Y120.887 E81.15803
G1 X230.278 Y123.086 E81.23278
G1 X230.35 Y124.25 E81.27157
G1 X230.335 Y174.296 E82.9361
G1 X230.27 Y175.129 E82.96389
G1 X229.772 Y177.347 E83.0395
G1 X229.389 Y178.335 E83.07475
G1 X228.374 Y180.156 E83.14409
G1 X227.871 Y180.824 E83.1719
G1 X226.233 Y182.441 E83.24845
G1 X225.1 Y183.245 E83.29466
G1 X223.728 Y183.962 E83.34615
G1 X222.663 Y184.364 E83.38401
G1 X220.476 Y184.828 E83.45837
G1 X219.387 Y184.897 E83.49466
G1 X160.154 Y184.885 E85.46476
G1 X159.321 Y184.82 E85.49255
G1 X157.103 Y184.322 E85.56816
G1 X156.115 Y183.939 E85.6034
G1 X154.294 Y182.924 E85.67274
G1 X153.626 Y182.421 E85.70055
G1 X152.032 Y180.81 E85.77593
G1 X151.964 Y181.03 E85.78359
G1 X151.195 Y182.363 E85.83477
G1 X150.091 Y183.604 E85.89002
G1 X148.438 Y184.675 E85.95553
G1 X146.694 Y185.059 E86.01492
G1 X77.172 Y185.059 E88.32723
G1 X75.381 Y184.611 E88.38864
G1 X73.757 Y183.548 E88.4532
G1 X72.655 Y182.319 E88.5081
G1 X71.904 Y180.936 E88.56044
G1 X71.49 Y179.211 E88.61944
G1 X71.495 Y121.02 E90.55489
G1 X71.907 Y119.222 E90.61624
G1 X72.705 Y117.837 E90.6694
G1 X73.809 Y116.596 E90.72465
G1 X75.462 Y115.525 E90.79016
G0 F3600 X75.618 Y115.901
G1 F1200 X77.251 Y115.541 E90.84577
G1 X146.679 Y115.541 E93.15496
G1 X148.356 Y115.96 E93.21245
G1 X149.88 Y116.958 E93.27304
G1 X150.917 Y118.115 E93.32472
G1 X151.39 Y118.985 E93.35765
G1 X151.846 Y118.185 E93.38828
G1 X152.349 Y117.517 E93.41609
G1 X153.899 Y115.985 E93.48858
G1 X154.985 Y115.21 E93.53295
G1 X156.357 Y114.493 E93.58444
G1 X157.377 Y114.111 E93.62067
G1 X159.433 Y113.671 E93.6906
G1 X160.223 Y113.613 E93.71695
G1 X219.31 Y113.6 E95.68219
G1 X220.707 Y113.703 E95.72878
G1 X222.534 Y114.114 E95.79106
G1 X223.679 Y114.554 E95.83186
G1 X225.365 Y115.496 E95.8961
G1 X226.033 Y115.999 E95.92391
G1 X227.565 Y117.549 E95.99639
G1 X228.34 Y118.635 E96.04077
G1 X229.057 Y120.007 E96.09226
G1 X229.439 Y121.027 E96.12848
G1 X229.879 Y123.111 E96.19933
G1 X229.95 Y124.25 E96.23728
G1 X229.936 Y174.265 E97.90079
G1 X229.871 Y175.098 E97.92858
G1 X229.399 Y177.202 E98.0003
G1 X229.016 Y178.19 E98.03554
G1 X228.054 Y179.915 E98.10123
G1 X227.551 Y180.583 E98.12904
G1 X226.001 Y182.115 E98.20153
G1 X224.915 Y182.89 E98.2459
G1 X223.543 Y183.607 E98.29739
G1 X222.523 Y183.989 E98.33362
G1 X220.45 Y184.429 E98.4041
G1 X219.387 Y184.497 E98.43953
G1 X160.185 Y184.486 E100.4086
G1 X159.352 Y184.421 E100.43639
G1 X157.248 Y183.949 E100.50811
G1 X156.26 Y183.566 E100.54335
G1 X154.535 Y182.604 E100.60904
G1 X153.867 Y182.101 E100.63686
G1 X152.335 Y180.551 E100.70934
G1 X151.839 Y179.863 E100.73755
G1 X151.617 Y180.83 E100.77055
G1 X150.868 Y182.129 E100.82042
G1 X149.827 Y183.298 E100.87248
G1 X148.282 Y184.299 E100.93371
G1 X146.649 Y184.659 E100.98933
G1 X77.221 Y184.659 E103.29852
G1 X75.544 Y184.24 E103.35601
G1 X74.02 Y183.242 E103.4166
G1 X72.983 Y182.085 E103.46828
G1 X72.281 Y180.793 E103.51718
G1 X71.89 Y179.164 E103.5729
G1 X71.895 Y121.065 E105.50528
G1 X72.283 Y119.371 E105.56308
G1 X73.032 Y118.071 E105.61298
G1 X74.073 Y116.902 E105.66505
G1 X75.618 Y115.901 E105.72628
G0 F3600 X75.775 Y116.276
G1 F1200 X77.296 Y115.941 E105.77808
G1 X146.63 Y115.941 E108.08414
G1 X148.193 Y116.331 E108.13772
G1 X149.617 Y117.264 E108.19434
G1 X150.587 Y118.346 E108.24267
G1 X151.217 Y119.506 E108.28657
G1 X151.328 Y119.907 E108.30041
G1 X152.166 Y118.426 E108.35701
G1 X152.669 Y117.758 E108.38482
G1 X154.18 Y116.27 E108.45536
G1 X155.171 Y115.564 E108.49583
G1 X156.497 Y114.868 E108.54564
G1 X157.517 Y114.486 E108.58186
G1 X159.462 Y114.07 E108.64802
G1 X160.252 Y114.012 E108.67436
G1 X219.31 Y114 E110.63864
G1 X220.677 Y114.102 E110.68423
G1 X222.392 Y114.488 E110.7427
G1 X223.485 Y114.904 E110.7816
G1 X225.124 Y115.816 E110.84398
G1 X225.792 Y116.319 E110.87179
G1 X227.28 Y117.83 E110.94233
G1 X227.986 Y118.821 E110.9828
G1 X228.682 Y120.147 E111.03261
G1 X229.064 Y121.167 E111.06883
G1 X229.48 Y123.136 E111.13577
G1 X229.55 Y124.25 E111.17289
G1 X229.537 Y174.234 E112.83537
G1 X229.472 Y175.067 E112.86316
G1 X229.026 Y177.057 E112.93099
G1 X228.643 Y178.045 E112.96623
G1 X227.734 Y179.674 E113.02828
G1 X227.231 Y180.342 E113.05609
G1 X225.72 Y181.83 E113.12662
G1 X224.729 Y182.536 E113.16709
G1 X223.403 Y183.232 E113.2169
G1 X222.383 Y183.614 E113.25313
G1 X220.424 Y184.03 E113.31974
G1 X219.387 Y184.097 E113.3543
G1 X160.216 Y184.087 E115.32234
G1 X159.383 Y184.022 E115.35013
G1 X157.393 Y183.576 E115.41796
G1 X156.405 Y183.193 E115.4532
G1 X154.776 Y182.284 E115.51524
G1 X154.108 Y181.781 E115.54306
G1 X152.62 Y180.27 E115.61359
G1 X151.914 Y179.279 E115.65406
G1 X151.605 Y178.697 E115.67598
G1 X151.595 Y179.134 E115.69052
G1 X151.241 Y180.68 E115.74327
G1 X150.541 Y181.895 E115.7899
G1 X149.565 Y182.991 E115.83872
G1 X148.125 Y183.924 E115.89579
G1 X146.604 Y184.259 E115.94759
G1 X77.27 Y184.259 E118.25364
G1 X75.707 Y183.869 E118.30722
G1 X74.283 Y182.936 E118.36385
G1 X73.313 Y181.854 E118.41218
G1 X72.657 Y180.646 E118.4579
G1 X72.29 Y179.117 E118.5102
G1 X72.295 Y121.11 E120.43952
G1 X72.659 Y119.52 E120.49377
G1 X73.359 Y118.305 E120.54041
G1 X74.335 Y117.209 E120.58922
G1 X75.775 Y116.276 E120.64629
G0 F3600 X75.932 Y116.651
G1 F1200 X77.341 Y116.341 E120.69427
G1 X146.581 Y116.341 E122.99721
G1 X148.03 Y116.702 E123.04687
G1 X149.354 Y117.57 E123.09953
G1 X150.259 Y118.58 E123.14463
G1 X150.866 Y119.697 E123.18692
G1 X151.199 Y121.084 E123.23436
G1 X151.21 Y121.364 E123.24368
G1 X151.27 Y121.117 E123.25213
G1 X151.678 Y120.099 E123.28861
G1 X152.486 Y118.667 E123.3433
G1 X152.989 Y117.999 E123.37111
G1 X154.46 Y116.556 E123.43965
G1 X155.402 Y115.891 E123.478
G1 X156.637 Y115.243 E123.52439
G1 X157.657 Y114.861 E123.56061
G1 X159.491 Y114.469 E123.62299
